Papirus/64x64/apps/tokodon.svg

<svg width="64" height="64" version="1.1" xmlns="http://www.w3.org/2000/svg">
 <circle transform="rotate(90)" cx="33" cy="-32" r="28" style="opacity:.2"/>
 <circle transform="rotate(90)" cx="32" cy="-32" r="28" style="fill:#50beee;opacity:.98"/>
 <path d="m25 27c-1.789827 7.666887-5.218879 10.208523-7 11-0.599569 0.26643-0.985639 0.392237-1 0.5-0.01544 0.115822 0.331689 0.482598 1 0.5 1.632158 0.0425 5.421435-1.474319 9-6 4.124085-5.21558 2-6 2-6z" style="opacity:.2"/>
 <path d="m25 26c-1.789827 7.666887-5.218879 10.208523-7 11-0.599569 0.26643-0.985639 0.392237-1 0.5-0.01544 0.115822 0.331689 0.482598 1 0.5 1.632158 0.0425 5.421435-1.474319 9-6 4.124085-5.21558 2-6 2-6z" style="fill:#e4e4e4"/>
 <path d="m39 27c1.742845 7.465598 5.402087 10.155505 7 11 0.595482 0.314712 0.984519 0.383832 1 0.5 0.0156 0.117058-0.339701 0.485591-1 0.5-1.588562 0.03466-5.43709-1.494119-9-6-4.124085-5.215579-2-6-2-6z" style="opacity:.2"/>
 <path d="m39 26c1.742845 7.465598 5.402087 10.155505 7 11 0.595482 0.314712 0.984519 0.383832 1 0.5 0.0156 0.117058-0.339701 0.485591-1 0.5-1.588562 0.03466-5.43709-1.494119-9-6-4.124085-5.215579-2-6-2-6z" style="fill:#e4e4e4"/>
 <path d="m 42,17 c 3,0 6,3 6,6 v 4 c 0,1.48806 -1.422983,3 -3,3 H 38 L 37.9904,35.095331 38,40 c 0.0025,1.256276 0.278034,2.145163 0.278034,2.145163 0.653164,1.451345 1.791691,3.043569 3.760779,3.257938 0.990138,0.107785 2.534858,-0.342507 2.80944,-0.639124 C 45.005142,44.594498 45,44.277681 45,44 c 0,-0.499624 0,-1 1,-1 0.133132,0 0.317141,0.03534 0.486604,0.06176 C 46.854061,43.119049 47.008243,43.223858 47,43.5 46.983927,44.038448 46.433543,44.921713 46.225742,45.226451 47.416708,45.435099 48,45.459842 48,46 c 0,0.565127 -0.28699,1 -1,1 -0.489897,0 -0.563472,-0.361024 -1.309199,-0.123063 C 43.723414,47.504729 42,49 36,49 33,49 28.38869,45.800064 27,43 26.008364,41.000531 26.039278,38.091605 26.02483,35.115144 L 26,30 h -4 c -3,0 -5.99354,-2.999999 -5.996348,-6.042629 L 16,20 c 0,-1.460398 1.598026,-3 3,-3 z" style="opacity:.2"/>
 <path d="m 42,16 c 3,0 6,3 6,6 v 4 c 0,1.48806 -1.422983,3 -3,3 H 38 L 37.9904,34.095331 38,39 c 0.0025,1.256276 0.278034,2.145163 0.278034,2.145163 0.653164,1.451345 1.791691,3.043569 3.760779,3.257938 0.990138,0.107785 2.534858,-0.342507 2.80944,-0.639124 C 45.005142,43.594498 45,43.277681 45,43 c 0,-0.499624 0,-1 1,-1 0.133132,0 0.317141,0.03534 0.486604,0.06176 C 46.854061,42.119049 47.008243,42.223858 47,42.5 46.983927,43.038448 46.433543,43.921713 46.225742,44.226451 47.416708,44.435099 48,44.459842 48,45 c 0,0.565127 -0.28699,1 -1,1 -0.489897,0 -0.563472,-0.361024 -1.309199,-0.123063 C 43.723414,46.504729 42,48 36,48 33,48 28.38869,44.800064 27,42 26.008364,40.000531 26.039278,37.091605 26.02483,34.115144 L 26,29 h -4 c -3,0 -5.99354,-2.999999 -5.996348,-6.042629 L 16,19 c 0,-1.460398 1.598026,-3 3,-3 z" style="fill:#4f4f4d"/>
 <ellipse transform="matrix(.5593716 -.82891701 .89658382 .44287408 0 0)" cx="-4.2738733" cy="43.934189" rx="2.2251427" ry="1.7460639" style="fill:#e4e4e4;opacity:.98"/>
 <ellipse transform="matrix(-.55937162 -.828917 -.89658383 .44287407 0 0)" cx="-33.324329" cy="-10.438864" rx="2.225143" ry="1.7460638" style="fill:#e4e4e4;opacity:.98"/>
 <path d="M 32,4 C 16.488,4 4,16.488 4,32 4,32.11345 4.01128,32.224113 4.01758,32.335938 4.369121,17.134181 16.710728,5 32,5 47.289272,5 59.630879,17.134181 59.982422,32.335938 59.98872,32.224113 60,32.11345 60,32 60,16.488 47.512,4 32,4 Z" style="fill:#ffffff;opacity:.2"/>
</svg>

<svg xmlns="http://www.w3.org/2000/svg" width="64" height="64" version="1.1">
 <circle style="opacity:0.2" cx="32" cy="33" r="28"/>
 <circle style="fill:#50beee" cx="32" cy="32" r="28"/>
 <path style="opacity:0.2" d="M 39,27 C 40.743,34.466 44.402,37.156 46,38 46.595,38.315 46.985,38.384 47,38.5 47.016,38.617 46.66,38.986 46,39 44.411,39.035 40.563,37.506 37,33 32.876,27.784 35,27 35,27 Z M 25,27 C 23.21,34.667 19.781,37.209 18,38 17.4,38.266 17.014,38.392 17,38.5 16.985,38.616 17.332,38.983 18,39 19.632,39.042 23.421,37.526 27,33 31.124,27.784 29,27 29,27 Z"/>
 <path style="fill:#e4e4e4" d="M 39,26 C 40.743,33.466 44.402,36.156 46,37 46.595,37.315 46.985,37.384 47,37.5 47.016,37.617 46.66,37.986 46,38 44.411,38.035 40.563,36.506 37,32 32.876,26.784 35,26 35,26 Z M 25,26 C 23.21,33.667 19.781,36.209 18,37 17.4,37.266 17.014,37.392 17,37.5 16.985,37.616 17.332,37.983 18,38 19.632,38.042 23.421,36.526 27,32 31.124,26.784 29,26 29,26 Z"/>
 <path style="opacity:0.2" d="M 42,17 C 45,17 48,20 48,23 V 27 C 48,28.488 46.577,30 45,30 H 38 L 37.99,35.095 38,40 C 38.003,41.256 38.278,42.145 38.278,42.145 38.931,43.597 40.07,45.189 42.039,45.403 43.029,45.511 44.574,45.061 44.848,44.764 45.005,44.594 45,44.278 45,44 45,43.5 45,43 46,43 46.133,43 46.317,43.035 46.487,43.062 46.854,43.119 47.008,43.224 47,43.5 46.984,44.038 46.434,44.922 46.226,45.226 47.417,45.435 48,45.46 48,46 48,46.565 47.713,47 47,47 46.51,47 46.437,46.639 45.691,46.877 43.723,47.505 42,49 36,49 33,49 28.389,45.8 27,43 26.008,41.001 26.039,38.092 26.025,35.115 L 26,30 H 22 C 19,30 16.006,27 16.004,23.957 L 16,20 C 16,18.54 17.598,17 19,17 Z"/>
 <path style="fill:#4f4f4d" d="M 42,16 C 45,16 48,19 48,22 V 26 C 48,27.488 46.577,29 45,29 H 38 L 37.99,34.095 38,39 C 38.003,40.256 38.278,41.145 38.278,41.145 38.931,42.597 40.07,44.189 42.039,44.403 43.029,44.511 44.574,44.061 44.848,43.764 45.005,43.594 45,43.278 45,43 45,42.5 45,42 46,42 46.133,42 46.317,42.035 46.487,42.062 46.854,42.119 47.008,42.224 47,42.5 46.984,43.038 46.434,43.922 46.226,44.226 47.417,44.435 48,44.46 48,45 48,45.565 47.713,46 47,46 46.51,46 46.437,45.639 45.691,45.877 43.723,46.505 42,48 36,48 33,48 28.389,44.8 27,42 26.008,40.001 26.039,37.092 26.025,34.115 L 26,29 H 22 C 19,29 16.006,26 16.004,22.957 L 16,19 C 16,17.54 17.598,16 19,16 Z"/>
 <ellipse style="opacity:0.1" cx="-5.179" cy="44.499" rx="2.225" ry="1.746" transform="matrix(0.55937,-0.82892,0.89658,0.44287,0,0)"/>
 <ellipse style="fill:#e4e4e4" cx="-4.274" cy="43.934" rx="2.225" ry="1.746" transform="matrix(.5593716 -.82891701 .89658382 .44287408 0 0)"/>
 <ellipse style="opacity:0.1" cx="-34.229" cy="-9.874" rx="2.225" ry="1.746" transform="matrix(-0.55937,-0.82892,-0.89658,0.44287,0,0)"/>
 <ellipse style="fill:#e4e4e4" cx="-33.324" cy="-10.439" rx="2.225" ry="1.746" transform="matrix(-.55937162 -.828917 -.89658383 .44287407 0 0)"/>
 <path style="fill:#ffffff;opacity:0.2" d="M 32,4 C 16.488,4 4,16.488 4,32 4,32.11345 4.01128,32.224113 4.01758,32.335938 4.369121,17.134181 16.710728,5 32,5 47.289272,5 59.630879,17.134181 59.982422,32.335938 59.98872,32.224113 60,32.11345 60,32 60,16.488 47.512,4 32,4 Z"/>
 <path style="fill:#ffffff;opacity:0.1" d="M 19 16 C 17.598 16 16 17.54 16 19 L 16 19.984 C 16.011 18.529 17.603 17 19 17 L 42 17 C 45 17 48 20 48 23 L 48 22 C 48 19 45 16 42 16 L 19 16 z M 37.992 34.586 L 37.99 35.096 L 38 40 C 38.003 41.256 38.277 42.145 38.277 42.145 C 38.93 43.597 40.07 45.188 42.039 45.402 C 43.029 45.51 44.574 45.061 44.848 44.764 C 45.005 44.594 45 44.278 45 44 C 45 43.5 45 43 46 43 C 46.133 43 46.316 43.036 46.486 43.062 C 46.629 43.085 46.731 43.118 46.812 43.162 C 46.913 42.926 46.994 42.691 47 42.5 C 47.008 42.224 46.853 42.119 46.486 42.062 C 46.316 42.036 46.133 42 46 42 C 45 42 45 42.5 45 43 C 45 43.278 45.005 43.594 44.848 43.764 C 44.574 44.061 43.029 44.51 42.039 44.402 C 40.07 44.188 38.93 42.597 38.277 41.145 C 38.277 41.145 38.003 40.256 38 39 L 37.992 34.586 z M 46.744 44.314 C 46.566 44.692 46.345 45.054 46.227 45.227 C 47.05 45.371 47.576 45.429 47.826 45.629 C 47.943 45.458 48 45.243 48 45 C 48 44.55 47.57 44.454 46.744 44.314 z"/>
</svg>
